resource/w6.svg

<?xml version="1.0" encoding="UTF-8"?>
<svg width="185.38" height="141.71" version="1.1" viewBox="0 0 185.38 141.71" xml:space="preserve" xmlns="http://www.w3.org/2000/svg" xmlns:xlink="http://www.w3.org/1999/xlink"><defs><linearGradient id="Gradient_39" x1="45.662" x2="84.537" y1="88.8" y2="88.8" gradientUnits="userSpaceOnUse"><stop stop-color="#f87373" offset="0"/><stop stop-color="#b92d00" offset="1"/></linearGradient><linearGradient id="linearGradient6398-7-7" x1="267.7" x2="291.22" y1="-370.8" y2="-370.8" gradientTransform="matrix(1.2989 0 0 1.2989 -153.15 -16.516)" gradientUnits="userSpaceOnUse" xlink:href="#Gradient_39"/><linearGradient id="linearGradient6398-7-7-8" x1="267.7" x2="291.22" y1="-370.8" y2="-370.8" gradientTransform="matrix(1.2989 0 0 1.2989 -153.15 -16.516)" gradientUnits="userSpaceOnUse" xlink:href="#Gradient_39"/></defs><g transform="matrix(1.3333 0 0 -1.3333 -262.04 557.53)"><g fill-rule="evenodd"><path d="m327.3 340.04h8.268v8.015h-8.268z" fill="#3954a5"/><path d="m196.53 342.66h25.858v2.784h-25.858z" fill="#d52742"/><path d="m218.85 340.04h8.268v8.015h-8.268z" fill="#3954a5"/><path d="m224.75 331.27h103.3v83.529h-103.3z" fill="#fadf4d" stroke="#ffb200" stroke-width="4.4273"/><path d="m219.86 411.82h113.09v6.328h-113.09z" fill="#3954a5"/></g><g transform="translate(254.91 311.86)" fill="#5cb0e0"><path d="m0 0c9.955 0 18.054 8.099 18.054 18.055 0 9.955-8.099 18.054-18.054 18.054-9.913 0-18.012-8.099-18.012-18.054 0-9.956 8.099-18.055 18.012-18.055" fill="#5cb0e0" fill-rule="evenodd"/></g><g transform="translate(254.91 317.47)" fill="#a9cf9e"><path d="m0 0c6.876 0 12.486 5.568 12.486 12.444s-5.61 12.444-12.486 12.444c-6.834 0-12.444-5.568-12.444-12.444s5.61-12.444 12.444-12.444" fill="#a9cf9e" fill-rule="evenodd"/></g><g transform="translate(254.91 324.35)" fill="#f06ba8"><path d="m0 0c3.079 0 5.61 2.489 5.61 5.568 0 3.08-2.531 5.568-5.61 5.568s-5.568-2.488-5.568-5.568c0-3.079 2.489-5.568 5.568-5.568" fill="#f06ba8" fill-rule="evenodd"/></g><g transform="translate(305.53 311.86)" fill="#5cb0e0"><path d="m0 0c9.913 0 18.055 8.099 18.055 18.055 0 9.955-8.142 18.054-18.055 18.054-9.955 0-18.055-8.099-18.055-18.054 0-9.956 8.1-18.055 18.055-18.055" fill="#5cb0e0" fill-rule="evenodd"/></g><g transform="translate(305.53 317.47)" fill="#a9cf9e"><path d="m0 0c6.876 0 12.444 5.568 12.444 12.444s-5.568 12.444-12.444 12.444-12.486-5.568-12.486-12.444 5.61-12.444 12.486-12.444" fill="#a9cf9e" fill-rule="evenodd"/></g><g transform="translate(305.53 324.35)" fill="#f06ba8"><path d="m0 0c3.079 0 5.568 2.489 5.568 5.568 0 3.08-2.489 5.568-5.568 5.568s-5.568-2.488-5.568-5.568c0-3.079 2.489-5.568 5.568-5.568" fill="#f06ba8" fill-rule="evenodd"/></g>
<text transform="scale(1.3235 -.75555)" x="210.84579" y="-470.48325" fill="url(#linearGradient6398-7-7-8)" font-family="'Comic Sans MS'" font-size="72.738px" font-weight="bold" letter-spacing="0px" stroke="#ffb200" stroke-linecap="round" stroke-linejoin="round" stroke-width="12" text-align="center" text-anchor="middle" word-spacing="0px" style="paint-order:stroke fill markers" xml:space="preserve"><tspan x="210.84579" y="-470.48325" fill="url(#linearGradient6398-7-7-8)" font-family="'Comic Sans MS'" font-size="83.129px" font-weight="bold" stroke="#ffb200" stroke-linecap="round" stroke-linejoin="round" stroke-width="12" text-align="center" text-anchor="middle" style="paint-order:stroke fill markers">6</tspan></text>
<text transform="scale(1.3235 -.75555)" x="210.84581" y="-470.48325" fill="url(#linearGradient6398-7-7)" font-family="'Comic Sans MS'" font-size="72.738px" font-weight="bold" letter-spacing="0px" stroke="#ffffff" stroke-linecap="round" stroke-linejoin="round" stroke-width="6.1582" text-align="center" text-anchor="middle" word-spacing="0px" style="paint-order:stroke fill markers" xml:space="preserve"><tspan x="210.84581" y="-470.48325" fill="url(#linearGradient6398-7-7)" font-family="'Comic Sans MS'" font-size="83.129px" font-weight="bold" stroke="#ffffff" stroke-linecap="round" stroke-linejoin="round" stroke-width="6.1582" text-align="center" text-anchor="middle" style="paint-order:stroke fill markers">6</tspan></text>
</g></svg>

<?xml version="1.0" encoding="UTF-8" standalone="no"?>
<!-- Created with Inkscape (http://www.inkscape.org/) -->

<svg
   xmlns:dc="http://purl.org/dc/elements/1.1/"
   xmlns:cc="http://creativecommons.org/ns#"
   xmlns:rdf="http://www.w3.org/1999/02/22-rdf-syntax-ns#"
   xmlns:svg="http://www.w3.org/2000/svg"
   xmlns="http://www.w3.org/2000/svg"
   xmlns:xlink="http://www.w3.org/1999/xlink"
   xmlns:sodipodi="http://sodipodi.sourceforge.net/DTD/sodipodi-0.dtd"
   xmlns:inkscape="http://www.inkscape.org/namespaces/inkscape"
   version="1.1"
   id="svg2"
   xml:space="preserve"
   width="185.38133"
   height="141.70934"
   viewBox="0 0 185.38133 141.70934"
   sodipodi:docname="w6.svg"
   inkscape:version="0.92.3 (2405546, 2018-03-11)"><metadata
     id="metadata8"><rdf:RDF><cc:Work
         rdf:about=""><dc:format>image/svg+xml</dc:format><dc:type
           rdf:resource="http://purl.org/dc/dcmitype/StillImage" /><dc:title></dc:title></cc:Work></rdf:RDF></metadata><defs
     id="defs6"><linearGradient
       spreadMethod="pad"
       y2="88.800003"
       x2="81.537498"
       y1="88.800003"
       x1="48.662498"
       gradientUnits="userSpaceOnUse"
       id="linearGradient907"><stop
         id="stop903"
         stop-color="#F15A29"
         offset="0%"
         style="stop-color:#5370a0;stop-opacity:1" /><stop
         id="stop905"
         stop-color="#F67950"
         offset="100%"
         style="stop-color:#2e4050;stop-opacity:1" /></linearGradient><linearGradient
       inkscape:collect="always"
       id="linearGradient2234"><stop
         style="stop-color:#000000;stop-opacity:1;"
         offset="0"
         id="stop2230" /><stop
         style="stop-color:#000000;stop-opacity:0;"
         offset="1"
         id="stop2232" /></linearGradient><clipPath
       clipPathUnits="userSpaceOnUse"
       id="clipPath48"><path
         d="M 0,500 H 500 V 0 H 0 Z"
         id="path46"
         inkscape:connector-curvature="0" /></clipPath><clipPath
       clipPathUnits="userSpaceOnUse"
       id="clipPath672"><path
         d="M 0,500 H 500 V 0 H 0 Z"
         id="path670"
         inkscape:connector-curvature="0" /></clipPath><radialGradient
       inkscape:collect="always"
       xlink:href="#linearGradient2234"
       id="radialGradient2240"
       cx="139.24748"
       cy="-132.20404"
       fx="139.24748"
       fy="-132.20404"
       r="9.0527344"
       gradientTransform="matrix(1,0,0,1.5038835,0,66.615434)"
       gradientUnits="userSpaceOnUse" /><linearGradient
       id="Gradient_40"
       gradientUnits="userSpaceOnUse"
       x1="48.662498"
       y1="88.800003"
       x2="81.537498"
       y2="88.800003"
       spreadMethod="pad"><stop
         offset="0%"
         stop-color="#F15A29"
         id="stop197" /><stop
         offset="100%"
         stop-color="#F67950"
         id="stop199" /></linearGradient><linearGradient
       id="Gradient_39"
       gradientUnits="userSpaceOnUse"
       x1="45.662498"
       y1="88.800003"
       x2="84.537498"
       y2="88.800003"
       spreadMethod="pad"><stop
         offset="0%"
         stop-color="#F67950"
         id="stop192"
         style="stop-color:#f87373;stop-opacity:1" /><stop
         offset="100%"
         stop-color="#F15A29"
         id="stop194"
         style="stop-color:#b92d00;stop-opacity:1" /></linearGradient><linearGradient
       id="Gradient_38"
       gradientUnits="userSpaceOnUse"
       x1="30.6625"
       y1="88.800003"
       x2="99.537498"
       y2="88.800003"
       spreadMethod="pad"><stop
         offset="0%"
         stop-color="#D1D3D4"
         id="stop187" /><stop
         offset="100%"
         stop-color="#FFFFFF"
         id="stop189" /></linearGradient><linearGradient
       id="Gradient_37"
       gradientUnits="userSpaceOnUse"
       x1="27.6625"
       y1="88.800003"
       x2="102.5375"
       y2="88.800003"
       spreadMethod="pad"><stop
         offset="0%"
         stop-color="#FFFFFF"
         id="stop182" /><stop
         offset="100%"
         stop-color="#D1D3D4"
         id="stop184" /></linearGradient><linearGradient
       inkscape:collect="always"
       xlink:href="#Gradient_39"
       id="linearGradient6398-7-7"
       x1="267.69827"
       y1="-370.80496"
       x2="291.2178"
       y2="-370.80496"
       gradientUnits="userSpaceOnUse"
       gradientTransform="matrix(1.298888,0,0,1.298888,-153.15101,-16.516418)" /><linearGradient
       inkscape:collect="always"
       xlink:href="#Gradient_39"
       id="linearGradient6398-7-7-8"
       x1="267.69827"
       y1="-370.80496"
       x2="291.2178"
       y2="-370.80496"
       gradientUnits="userSpaceOnUse"
       gradientTransform="matrix(1.2988881,0,0,1.2988881,-153.15103,-16.516422)" /></defs><sodipodi:namedview
     pagecolor="#ffffff"
     bordercolor="#666666"
     borderopacity="1"
     objecttolerance="10"
     gridtolerance="10"
     guidetolerance="10"
     inkscape:pageopacity="0"
     inkscape:pageshadow="2"
     inkscape:window-width="1920"
     inkscape:window-height="1024"
     id="namedview4"
     showgrid="false"
     inkscape:zoom="2.5899345"
     inkscape:cx="77.053158"
     inkscape:cy="109.39033"
     inkscape:window-x="0"
     inkscape:window-y="0"
     inkscape:window-maximized="1"
     inkscape:current-layer="g10"
     fit-margin-top="0"
     fit-margin-left="0"
     fit-margin-right="0"
     fit-margin-bottom="0" /><g
     id="g10"
     inkscape:groupmode="layer"
     inkscape:label="117763-OQ1XWG-78"
     transform="matrix(1.3333333,0,0,-1.3333333,-262.04399,557.52532)"><path
   d="m 327.301,340.041 h 8.268 v 8.015 h -8.268 z"
   style="fill:#3954a5;fill-opacity:1;fill-rule:evenodd;stroke:none"
   id="path494"
   inkscape:connector-curvature="0" /><path
   d="m 196.533,342.656 h 25.858 v 2.784 h -25.858 z"
   style="fill:#d52742;fill-opacity:1;fill-rule:evenodd;stroke:none"
   id="path496"
   inkscape:connector-curvature="0" /><path
   d="m 218.848,340.041 h 8.268 v 8.015 h -8.268 z"
   style="fill:#3954a5;fill-opacity:1;fill-rule:evenodd;stroke:none"
   id="path562"
   inkscape:connector-curvature="0" /><path
   d="m 224.75466,331.26766 h 103.30468 v 83.52881 H 224.75466 Z"
   style="fill:#fadf4d;fill-opacity:1;fill-rule:evenodd;stroke:#ffb200;stroke-width:4.42732;stroke-miterlimit:4;stroke-dasharray:none;stroke-opacity:1"
   id="path564"
   inkscape:connector-curvature="0" /><path
   d="m 219.86,411.816 h 113.094 v 6.328 H 219.86 Z"
   style="fill:#3954a5;fill-opacity:1;fill-rule:evenodd;stroke:none"
   id="path568"
   inkscape:connector-curvature="0" /><g
   style="fill:#5cb0e0;fill-opacity:1"
   id="g570"
   transform="translate(254.9144,311.862)"><path
     d="M 0,0 C 9.955,0 18.054,8.099 18.054,18.055 18.054,28.01 9.955,36.109 0,36.109 -9.913,36.109 -18.012,28.01 -18.012,18.055 -18.012,8.099 -9.913,0 0,0"
     style="fill:#5cb0e0;fill-opacity:1;fill-rule:evenodd;stroke:none"
     id="path572"
     inkscape:connector-curvature="0" /></g><g
   style="fill:#a9cf9e;fill-opacity:1"
   id="g574"
   transform="translate(254.9144,317.4724)"><path
     d="M 0,0 C 6.876,0 12.486,5.568 12.486,12.444 12.486,19.32 6.876,24.888 0,24.888 -6.834,24.888 -12.444,19.32 -12.444,12.444 -12.444,5.568 -6.834,0 0,0"
     style="fill:#a9cf9e;fill-opacity:1;fill-rule:evenodd;stroke:none"
     id="path576"
     inkscape:connector-curvature="0" /></g><g
   style="fill:#f06ba8;fill-opacity:1"
   id="g578"
   transform="translate(254.9144,324.3483)"><path
     d="m 0,0 c 3.079,0 5.61,2.489 5.61,5.568 0,3.08 -2.531,5.568 -5.61,5.568 -3.079,0 -5.568,-2.488 -5.568,-5.568 C -5.568,2.489 -3.079,0 0,0"
     style="fill:#f06ba8;fill-opacity:1;fill-rule:evenodd;stroke:none"
     id="path580"
     inkscape:connector-curvature="0" /></g><g
   style="fill:#5cb0e0;fill-opacity:1"
   id="g582"
   transform="translate(305.5345,311.862)"><path
     d="M 0,0 C 9.913,0 18.055,8.099 18.055,18.055 18.055,28.01 9.913,36.109 0,36.109 -9.955,36.109 -18.055,28.01 -18.055,18.055 -18.055,8.099 -9.955,0 0,0"
     style="fill:#5cb0e0;fill-opacity:1;fill-rule:evenodd;stroke:none"
     id="path584"
     inkscape:connector-curvature="0" /></g><g
   style="fill:#a9cf9e;fill-opacity:1"
   id="g586"
   transform="translate(305.5345,317.4724)"><path
     d="M 0,0 C 6.876,0 12.444,5.568 12.444,12.444 12.444,19.32 6.876,24.888 0,24.888 -6.876,24.888 -12.486,19.32 -12.486,12.444 -12.486,5.568 -6.876,0 0,0"
     style="fill:#a9cf9e;fill-opacity:1;fill-rule:evenodd;stroke:none"
     id="path588"
     inkscape:connector-curvature="0" /></g><g
   style="fill:#f06ba8;fill-opacity:1"
   id="g590"
   transform="translate(305.5345,324.3483)"><path
     d="m 0,0 c 3.079,0 5.568,2.489 5.568,5.568 0,3.08 -2.489,5.568 -5.568,5.568 -3.079,0 -5.568,-2.488 -5.568,-5.568 C -5.568,2.489 -3.079,0 0,0"
     style="fill:#f06ba8;fill-opacity:1;fill-rule:evenodd;stroke:none"
     id="path592"
     inkscape:connector-curvature="0" /></g>




<text
   xml:space="preserve"
   style="font-style:normal;font-variant:normal;font-weight:bold;font-stretch:normal;font-size:72.73773193px;font-family:'Comic Sans MS';-inkscape-font-specification:'Comic Sans MS Bold';text-align:center;letter-spacing:0px;word-spacing:0px;text-anchor:middle;fill:url(#linearGradient6398-7-7-8);fill-opacity:1;stroke:#ffb200;stroke-width:12;stroke-linecap:round;stroke-linejoin:round;stroke-miterlimit:4;stroke-dasharray:none;stroke-opacity:1;paint-order:stroke fill markers"
   x="210.84579"
   y="-470.48325"
   id="text1417-4-1-0-6"
   transform="scale(1.323546,-0.75554609)"><tspan
     sodipodi:role="line"
     id="tspan1415-7-4-2-6"
     x="210.84579"
     y="-470.48325"
     style="font-style:normal;font-variant:normal;font-weight:bold;font-stretch:normal;font-size:83.12882996px;font-family:'Comic Sans MS';-inkscape-font-specification:'Comic Sans MS Bold';text-align:center;text-anchor:middle;fill:url(#linearGradient6398-7-7-8);fill-opacity:1;stroke:#ffb200;stroke-width:12;stroke-linecap:round;stroke-linejoin:round;stroke-miterlimit:4;stroke-dasharray:none;stroke-opacity:1;paint-order:stroke fill markers">6</tspan></text>
<text
   xml:space="preserve"
   style="font-style:normal;font-variant:normal;font-weight:bold;font-stretch:normal;font-size:72.73773193px;font-family:'Comic Sans MS';-inkscape-font-specification:'Comic Sans MS Bold';text-align:center;letter-spacing:0px;word-spacing:0px;text-anchor:middle;fill:url(#linearGradient6398-7-7);fill-opacity:1;stroke:#ffffff;stroke-width:6.15822792;stroke-linecap:round;stroke-linejoin:round;stroke-miterlimit:4;stroke-dasharray:none;stroke-opacity:1;paint-order:stroke fill markers"
   x="210.84581"
   y="-470.48325"
   id="text1417-4-1-0"
   transform="scale(1.323546,-0.75554609)"><tspan
     sodipodi:role="line"
     id="tspan1415-7-4-2"
     x="210.84581"
     y="-470.48325"
     style="font-style:normal;font-variant:normal;font-weight:bold;font-stretch:normal;font-size:83.12882996px;font-family:'Comic Sans MS';-inkscape-font-specification:'Comic Sans MS Bold';text-align:center;text-anchor:middle;fill:url(#linearGradient6398-7-7);fill-opacity:1;stroke:#ffffff;stroke-width:6.15822792;stroke-linecap:round;stroke-linejoin:round;stroke-miterlimit:4;stroke-dasharray:none;stroke-opacity:1;paint-order:stroke fill markers">6</tspan></text>
</g></svg>
